X:1
T:Amhran na Leabhar
M:4/4
L:1/4
K:EDorian
lB|:(E>F) (G>A)|(B e-e)> f|(e>d) (B>A)|(B/c/ d2) e|(E>F) (G>F)|(G/A/B2) A|F2 (E>D)|1E3 B:|2 E3 z|!
e2 (e>d)|(e/f/g2 f)|(e>d) (B>A)|B3 c|(d>c) (d>c)|(d/e/-e2) d|(B>A)(G>A)|B3 B|!
(E>F) (G>A)|(B e-e)> f|(e>d) (B>A)|(B/c/ d2) e|(E>F) (G>F)|(G/A/B2) A|F2 (E>D)|E3|]

